X: 7979
T: Congress, The
R: reel
M: 4/4
K: Adorian
|:eAA2 ABcd|eaa2 gedg|eAA2 gAe2|BAGA Bcdg|
eAA2 ABcd|eaa2 gedg|eAA2 gAe2|BAGB A3g:|
|:eaag a3g|eaa2 gedg|gedg gedg|egga gedg|
eaag a3g|eaa2 gedB|c3d eged|cABG A3g:|

